X:3319
T:Kitty O'Linch. JMT015
O:england
M:6/8
L:1/8
S:J.Moore,Tyneside,1841. (10b)
R:Jig
A:Northumbria
H:1841
K:D
f/e/|dAA AFA|BGB Afe|dAA AFA|g3f2e|dAA AFA|Bdgb2a|aba agf|e3d2:|
|:g|fgab2a|fgab2a|fga fga|e2f gfe|fgab2a|fgab2a|aba agf|e3d2:|]


